Lea Goldberg/Assets/Horror Living Room/Textures/FLivingRoom (2).cube
#Created by: Adobe Photoshop Export Color Lookup Plugin
TITLE "LivingRoomLut"
#LUT size
LUT_3D_SIZE 32
#data domain
DOMAIN_MIN 0.0 0.0 0.0
DOMAIN_MAX 1.0 1.0 1.0
#LUT data points
0.000000 0.001831 0.000179
0.000000 0.002515 0.000863
0.000000 0.002879 0.001228
0.002418 0.002978 0.001326
0.006620 0.003540 0.001888
0.011530 0.004196 0.002544
0.017276 0.004965 0.003313
0.024738 0.005963 0.004311
0.035201 0.007362 0.005710
0.049838 0.009291 0.007693
0.072266 0.011959 0.010986
0.102291 0.015533 0.015356
0.143876 0.020497 0.020320
0.197885 0.025438 0.025261
0.272779 0.034415 0.033884
0.373010 0.048734 0.042264
0.510542 0.068381 0.061990
0.705554 0.096240 0.095656
0.948893 0.131003 0.137119
1.000000 0.173856 0.179972
1.000000 0.231897 0.238013
1.000000 0.310513 0.316629
1.000000 0.416928 0.423043
1.000000 0.561114 0.567230
1.000000 0.756449 0.762566
1.000000 1.000000 1.000000
1.000000 1.000000 1.000000
1.000000 1.000000 1.000000
1.000000 1.000000 1.000000
1.000000 1.000000 1.000000
1.000000 1.000000 1.000000
1.000000 1.000000 1.000000
0.000000 0.005934 0.000179
0.000000 0.006618 0.000863
0.000000 0.007213 0.001458
0.003102 0.007765 0.002010
0.007304 0.008327 0.002572
0.012214 0.008984 0.003228
0.017960 0.009752 0.003997
0.025422 0.010750 0.004995
0.035885 0.012150 0.006394
0.050522 0.014078 0.008377
0.072950 0.016747 0.011670
0.102975 0.020320 0.016040
0.144560 0.025285 0.021004
0.198569 0.030226 0.025945
0.273463 0.039203 0.034568
0.373010 0.052838 0.042264
0.510555 0.072498 0.062004
0.706238 0.101028 0.096340
0.949577 0.135791 0.137803
1.000000 0.178644 0.180656
1.000000 0.236685 0.238697
1.000000 0.315300 0.317313
1.000000 0.421715 0.423727
1.000000 0.565902 0.567913
1.000000 0.761237 0.763248
1.000000 1.000000 1.000000
1.000000 1.000000 1.000000
1.000000 1.000000 1.000000
1.000000 1.000000 1.000000
1.000000 1.000000 1.000000
1.000000 1.000000 1.000000
1.000000 1.000000 1.000000
0.000000 0.009980 0.000655
0.000000 0.010664 0.001339
0.000000 0.011259 0.001934
0.003591 0.011824 0.002499
0.007423 0.012016 0.002691
0.012333 0.012673 0.003347
0.018079 0.013442 0.004116
0.025541 0.014439 0.005114
0.036004 0.015839 0.006513
0.050651 0.017776 0.008505
0.073182 0.020549 0.011902
0.103340 0.024255 0.016405
0.144925 0.029220 0.021369
0.198934 0.034161 0.026310
0.273769 0.043079 0.034874
0.373010 0.056408 0.042264
0.510555 0.076068 0.062004
0.706535 0.104895 0.096637
0.950172 0.139956 0.138398
1.000000 0.182809 0.181251
1.000000 0.240850 0.239292
1.000000 0.319465 0.317907
1.000000 0.425880 0.424322
1.000000 0.570067 0.568507
1.000000 0.765402 0.763842
1.000000 1.000000 1.000000
1.000000 1.000000 1.000000
1.000000 1.000000 1.000000
1.000000 1.000000 1.000000
1.000000 1.000000 1.000000
1.000000 1.000000 1.000000
1.000000 1.000000 1.000000
0.000000 0.014766 0.001327
0.000000 0.015450 0.002011
0.000000 0.016045 0.002606
0.004268 0.016586 0.003152
0.007863 0.016541 0.003107
0.012329 0.016754 0.003320
0.018075 0.017522 0.004088
0.025537 0.018520 0.005086
0.036000 0.019919 0.006485
0.050652 0.021863 0.008425
0.073184 0.024636 0.011822
0.103333 0.028350 0.016357
0.144918 0.033315 0.021321
0.198921 0.038268 0.026268
0.273754 0.047149 0.034819
0.372997 0.060473 0.042262
0.510558 0.080138 0.062024
0.706529 0.108962 0.096643
0.950850 0.144701 0.139052
1.000000 0.187554 0.181906
1.000000 0.245595 0.239947
1.000000 0.324210 0.318562
1.000000 0.430625 0.424977
1.000000 0.574811 0.569163
1.000000 0.770147 0.764496
1.000000 1.000000 1.000000
1.000000 1.000000 1.000000
1.000000 1.000000 1.000000
1.000000 1.000000 1.000000
1.000000 1.000000 1.000000
1.000000 1.000000 1.000000
1.000000 1.000000 1.000000
0.000000 0.019209 0.001894
0.000000 0.019893 0.002578
0.000271 0.020488 0.003173
0.004891 0.021017 0.003708
0.008459 0.020844 0.003566
0.012660 0.020791 0.003514
0.018053 0.021207 0.003929
0.025514 0.022205 0.004927
0.035977 0.023604 0.006326
0.050637 0.025555 0.008196
0.073195 0.028354 0.011361
0.103338 0.032075 0.015917
0.144879 0.037083 0.021044
0.198849 0.042106 0.026028
0.273671 0.050772 0.034500
0.372918 0.064069 0.042251
0.510575 0.083762 0.062141
0.706496 0.112569 0.096676
0.950965 0.148422 0.139033
1.000000 0.191275 0.181886
1.000000 0.249316 0.239927
1.000000 0.327932 0.318543
1.000000 0.434347 0.424958
1.000000 0.578533 0.569144
1.000000 0.773868 0.764479
1.000000 1.000000 1.000000
1.000000 1.000000 1.000000
1.000000 1.000000 1.000000
1.000000 1.000000 1.000000
1.000000 1.000000 1.000000
1.000000 1.000000 1.000000
1.000000 1.000000 1.000000
0.000000 0.024400 0.002557
0.000000 0.025084 0.003241
0.001013 0.025679 0.003836
0.005620 0.026195 0.004358
0.009187 0.026021 0.004216
0.013355 0.025818 0.004050
0.018272 0.025757 0.003988
0.025488 0.026510 0.004741
0.035951 0.027909 0.006140
0.050611 0.029860 0.008010
0.073208 0.032698 0.010823
0.103350 0.036419 0.015378
0.144832 0.041487 0.020721
0.198764 0.046591 0.025747
0.273573 0.055006 0.034128
0.372804 0.068266 0.042235
0.510594 0.087996 0.062278
0.706457 0.116783 0.096715
0.950939 0.152610 0.138850
1.000000 0.195463 0.181703
1.000000 0.253504 0.239744
1.000000 0.332120 0.318360
1.000000 0.438535 0.424775
1.000000 0.582721 0.568961
1.000000 0.778057 0.764296
1.000000 1.000000 1.000000
1.000000 1.000000 1.000000
1.000000 1.000000 1.000000
1.000000 1.000000 1.000000
1.000000 1.000000 1.000000
1.000000 1.000000 1.000000
1.000000 1.000000 1.000000
0.000000 0.030475 0.003334
0.000000 0.031158 0.004017
0.001881 0.031753 0.004612
0.006472 0.032255 0.005119
0.010040 0.032081 0.004977
0.014208 0.031878 0.004810
0.019085 0.031641 0.004616
0.025470 0.031561 0.004536
0.035920 0.032947 0.005923
0.050580 0.034899 0.007792
0.073222 0.037783 0.010192
0.103365 0.041503 0.014748
0.144778 0.046640 0.020343
0.198664 0.051839 0.025418
0.273372 0.060030 0.033501
0.372536 0.073160 0.042196
0.510617 0.092950 0.062439
0.706419 0.121715 0.096753
0.950908 0.157511 0.138636
1.000000 0.200364 0.181489
1.000000 0.258406 0.239530
1.000000 0.337021 0.318146
1.000000 0.443436 0.424561
1.000000 0.587622 0.568747
1.000000 0.782958 0.764082
1.000000 1.000000 1.000000
1.000000 1.000000 1.000000
1.000000 1.000000 1.000000
1.000000 1.000000 1.000000
1.000000 1.000000 1.000000
1.000000 1.000000 1.000000
1.000000 1.000000 1.000000
0.000000 0.038363 0.004341
0.000000 0.039047 0.005025
0.003008 0.039642 0.005620
0.007579 0.040123 0.006107
0.011147 0.039949 0.005965
0.015315 0.039747 0.005798
0.020192 0.039509 0.005604
0.026526 0.039201 0.005351
0.035879 0.039490 0.005640
0.050539 0.041441 0.007510
0.073227 0.044370 0.009502
0.103384 0.048105 0.013929
0.144708 0.053331 0.019852
0.198535 0.058654 0.024991
0.273023 0.066622 0.032494
0.372189 0.079514 0.042147
0.510647 0.099384 0.062647
0.706419 0.128119 0.096753
0.950868 0.163876 0.138358
1.000000 0.206729 0.181211
1.000000 0.264770 0.239253
1.000000 0.343385 0.317868
1.000000 0.449800 0.424283
1.000000 0.593987 0.568469
1.000000 0.789322 0.763804
1.000000 1.000000 1.000000
1.000000 1.000000 1.000000
1.000000 1.000000 1.000000
1.000000 1.000000 1.000000
1.000000 1.000000 1.000000
1.000000 1.000000 1.000000
1.000000 1.000000 1.000000
0.000000 0.049425 0.005755
0.000423 0.050108 0.006438
0.004588 0.050703 0.007033
0.009132 0.051157 0.007492
0.012699 0.050983 0.007350
0.016867 0.050780 0.007184
0.021745 0.050543 0.006989
0.028079 0.050235 0.006736
0.036961 0.049802 0.006382
0.050483 0.050616 0.007114
0.073171 0.053544 0.009106
0.103411 0.057363 0.012782
0.144610 0.062714 0.019164
0.198355 0.068211 0.024393
0.272535 0.075865 0.031081
0.371702 0.088425 0.042077
0.510689 0.108406 0.062940
0.706419 0.137099 0.096753
0.950813 0.172800 0.137968
1.000000 0.215654 0.180822
1.000000 0.273695 0.238863
1.000000 0.352310 0.317478
1.000000 0.458725 0.423893
1.000000 0.602912 0.568079
1.000000 0.798247 0.763415
1.000000 1.000000 1.000000
1.000000 1.000000 1.000000
1.000000 1.000000 1.000000
1.000000 1.000000 1.000000
1.000000 1.000000 1.000000
1.000000 1.000000 1.000000
1.000000 1.000000 1.000000
0.000000 0.064635 0.007683
0.002596 0.065319 0.008367
0.006761 0.065914 0.008962
0.011266 0.066341 0.009383
0.014836 0.066185 0.009244
0.019004 0.065983 0.009077
0.023882 0.065745 0.008883
0.030216 0.065437 0.008630
0.039098 0.065004 0.008276
0.051445 0.064447 0.007841
0.072968 0.066211 0.008669
0.103341 0.070143 0.011338
0.144511 0.075539 0.017830
0.198159 0.081257 0.023383
0.271976 0.088674 0.029374
0.371127 0.100786 0.041995
0.510397 0.120932 0.062900
0.706405 0.149625 0.096767
0.950745 0.185204 0.137496
1.000000 0.228057 0.180349
1.000000 0.286099 0.238390
1.000000 0.364714 0.317006
1.000000 0.471129 0.423421
1.000000 0.615315 0.567607
1.000000 0.810651 0.762942
1.000000 1.000000 1.000000
1.000000 1.000000 1.000000
1.000000 1.000000 1.000000
1.000000 1.000000 1.000000
1.000000 1.000000 1.000000
1.000000 1.000000 1.000000
1.000000 1.000000 1.000000
0.000763 0.085320 0.010160
0.005551 0.086004 0.010844
0.009716 0.086599 0.011439
0.014141 0.086946 0.011780
0.017720 0.086851 0.011651
0.021902 0.086740 0.011501
0.026795 0.086610 0.011325
0.033145 0.086408 0.011091
0.042027 0.085975 0.010736
0.054374 0.085418 0.010302
0.072519 0.085042 0.010248
0.101806 0.087888 0.011832
0.143471 0.093466 0.016790
0.197793 0.099391 0.020822
0.272026 0.107056 0.028975
0.371765 0.118955 0.042086
0.510241 0.140222 0.063056
0.706311 0.168027 0.096932
0.950745 0.203402 0.137496
1.000000 0.246256 0.180349
1.000000 0.304297 0.238390
1.000000 0.382912 0.317006
1.000000 0.489327 0.423421
1.000000 0.633513 0.567607
1.000000 0.828849 0.762942
1.000000 1.000000 1.000000
1.000000 1.000000 1.000000
1.000000 1.000000 1.000000
1.000000 1.000000 1.000000
1.000000 1.000000 1.000000
1.000000 1.000000 1.000000
1.000000 1.000000 1.000000
0.004718 0.113001 0.013484
0.009505 0.113685 0.014168
0.013670 0.114280 0.014763
0.017994 0.114531 0.015014
0.021574 0.114442 0.014895
0.025756 0.114331 0.014745
0.030650 0.114201 0.014569
0.037004 0.114032 0.014341
0.045915 0.113795 0.014020
0.058318 0.113488 0.013629
0.076463 0.113112 0.013576
0.100775 0.112630 0.013496
0.141861 0.117380 0.016252
0.197039 0.123634 0.018280
0.271579 0.131690 0.027774
0.372971 0.143559 0.042259
0.510010 0.165938 0.063116
0.706330 0.191815 0.097062
0.950742 0.228026 0.137473
1.000000 0.270880 0.180326
1.000000 0.328921 0.238368
1.000000 0.407536 0.316983
1.000000 0.513951 0.423398
1.000000 0.658137 0.567584
1.000000 0.853473 0.762919
1.000000 1.000000 1.000000
1.000000 1.000000 1.000000
1.000000 1.000000 1.000000
1.000000 1.000000 1.000000
1.000000 1.000000 1.000000
1.000000 1.000000 1.000000
1.000000 1.000000 1.000000
0.010153 0.151052 0.018351
0.014941 0.151736 0.019035
0.019106 0.152331 0.019630
0.023334 0.152487 0.019785
0.026930 0.152442 0.019740
0.031131 0.152390 0.019688
0.036048 0.152329 0.019627
0.042432 0.152249 0.019548
0.051385 0.152138 0.019436
0.063810 0.151876 0.019113
0.082294 0.151694 0.019087
0.106878 0.151368 0.019030
0.141155 0.151320 0.018697
0.195786 0.158451 0.023330
0.270125 0.166750 0.027566
0.373262 0.179589 0.042300
0.512176 0.199244 0.062145
0.706140 0.232940 0.095734
0.950647 0.269412 0.136809
1.000000 0.312266 0.179662
1.000000 0.370307 0.237703
1.000000 0.448922 0.316318
1.000000 0.555337 0.422733
1.000000 0.699523 0.566920
1.000000 0.894859 0.762255
1.000000 1.000000 1.000000
1.000000 1.000000 1.000000
1.000000 1.000000 1.000000
1.000000 1.000000 1.000000
1.000000 1.000000 1.000000
1.000000 1.000000 1.000000
1.000000 1.000000 1.000000
0.017634 0.203416 0.025995
0.022422 0.204100 0.026679
0.026587 0.204695 0.027274
0.030842 0.204878 0.027456
0.034438 0.204833 0.027412
0.038639 0.204781 0.027360
0.043556 0.204719 0.027298
0.049940 0.204640 0.027219
0.058892 0.204529 0.027108
0.071368 0.204364 0.026875
0.090009 0.204026 0.025757
0.114946 0.203679 0.024764
0.150665 0.204486 0.025856
0.196881 0.205358 0.026689
0.270207 0.214853 0.033607
0.373151 0.228742 0.042284
0.515553 0.247921 0.062627
0.709192 0.279262 0.091201
0.950674 0.320378 0.137000
1.000000 0.363231 0.179853
1.000000 0.421272 0.237894
1.000000 0.499887 0.316509
1.000000 0.606302 0.422924
1.000000 0.750488 0.567110
1.000000 0.945824 0.762446
1.000000 1.000000 1.000000
1.000000 1.000000 1.000000
1.000000 1.000000 1.000000
1.000000 1.000000 1.000000
1.000000 1.000000 1.000000
1.000000 1.000000 1.000000
1.000000 1.000000 1.000000
0.028300 0.278077 0.039374
0.033087 0.278761 0.040058
0.037253 0.279356 0.040653
0.041968 0.280023 0.041320
0.045609 0.280160 0.041454
0.049863 0.280319 0.041611
0.054797 0.280356 0.041597
0.061161 0.280252 0.041378
0.070085 0.280107 0.041071
0.082355 0.279894 0.040662
0.099939 0.279667 0.040435
0.125131 0.279664 0.040413
0.162776 0.279634 0.040205
0.208812 0.280584 0.040829
0.272773 0.281418 0.041332
0.374391 0.296908 0.053158
0.515860 0.316784 0.064369
0.713902 0.345447 0.090963
0.948893 0.378607 0.124533
1.000000 0.421460 0.167386
1.000000 0.479501 0.225428
1.000000 0.558116 0.304043
1.000000 0.664531 0.410458
1.000000 0.808718 0.554644
1.000000 1.000000 0.749979
1.000000 1.000000 1.000000
1.000000 1.000000 1.000000
1.000000 1.000000 1.000000
1.000000 1.000000 1.000000
1.000000 1.000000 1.000000
1.000000 1.000000 1.000000
1.000000 1.000000 1.000000
0.043226 0.382558 0.061331
0.048013 0.383242 0.062015
0.052178 0.383837 0.062610
0.056936 0.384510 0.063277
0.061216 0.385083 0.063817
0.065991 0.385552 0.064253
0.070938 0.385613 0.064314
0.077362 0.385693 0.064394
0.086371 0.385804 0.064505
0.099041 0.385941 0.064656
0.117798 0.385805 0.064480
0.141946 0.385524 0.063951
0.178908 0.386194 0.064082
0.228803 0.386756 0.064335
0.292006 0.388836 0.066431
0.381145 0.390554 0.067406
0.521911 0.412295 0.084366
0.715753 0.438968 0.094075
0.948893 0.469129 0.124533
1.000000 0.511982 0.167386
1.000000 0.570023 0.225428
1.000000 0.648639 0.304043
1.000000 0.755054 0.410458
1.000000 0.899240 0.554644
1.000000 1.000000 0.749979
1.000000 1.000000 1.000000
1.000000 1.000000 1.000000
1.000000 1.000000 1.000000
1.000000 1.000000 1.000000
1.000000 1.000000 1.000000
1.000000 1.000000 1.000000
1.000000 1.000000 1.000000
0.083811 0.531259 0.098339
0.088599 0.531943 0.099023
0.092764 0.532538 0.099618
0.097551 0.533235 0.100315
0.101919 0.533861 0.100942
0.106394 0.533966 0.101046
0.111632 0.534088 0.101168
0.118433 0.534247 0.101327
0.127970 0.534469 0.101550
0.141836 0.534525 0.101578
0.158890 0.534473 0.101214
0.182059 0.534431 0.100922
0.216040 0.534377 0.100583
0.262271 0.534310 0.100353
0.327383 0.535421 0.100646
0.413739 0.536240 0.100431
0.532297 0.537441 0.103179
0.721512 0.563353 0.124001
0.951013 0.591591 0.139370
1.000000 0.634444 0.182223
1.000000 0.692486 0.240264
1.000000 0.771101 0.318879
1.000000 0.877516 0.425295
1.000000 1.000000 0.569480
1.000000 1.000000 0.764816
1.000000 1.000000 1.000000
1.000000 1.000000 1.000000
1.000000 1.000000 1.000000
1.000000 1.000000 1.000000
1.000000 1.000000 1.000000
1.000000 1.000000 1.000000
1.000000 1.000000 1.000000
0.141820 0.723670 0.139559
0.145924 0.723670 0.139559
0.149494 0.723670 0.139559
0.153560 0.723664 0.139558
0.157161 0.723625 0.139552
0.161369 0.723579 0.139546
0.166263 0.723535 0.139539
0.172428 0.723535 0.139539
0.181075 0.723535 0.139539
0.193096 0.723530 0.139508
0.210735 0.723553 0.139215
0.234229 0.723784 0.139054
0.265883 0.723962 0.139445
0.309952 0.723141 0.138795
0.371169 0.722670 0.137083
0.456377 0.722314 0.136542
0.571414 0.722371 0.136666
0.730334 0.723044 0.139412
0.955173 0.753057 0.168494
1.000000 0.795910 0.211347
1.000000 0.853951 0.269388
1.000000 0.932566 0.348003
1.000000 1.000000 0.454418
1.000000 1.000000 0.598604
1.000000 1.000000 0.793940
1.000000 1.000000 1.000000
1.000000 1.000000 1.000000
1.000000 1.000000 1.000000
1.000000 1.000000 1.000000
1.000000 1.000000 1.000000
1.000000 1.000000 1.000000
1.000000 1.000000 1.000000
0.188845 0.959544 0.177646
0.192949 0.959544 0.177646
0.196519 0.959544 0.177646
0.200592 0.959544 0.177646
0.204232 0.959544 0.177646
0.208486 0.959544 0.177646
0.213463 0.959544 0.177646
0.219927 0.959544 0.177646
0.228991 0.959544 0.177646
0.241467 0.959544 0.177646
0.258563 0.959544 0.177646
0.281466 0.959530 0.177622
0.313673 0.959102 0.176910
0.355828 0.958887 0.175996
0.416218 0.957799 0.175261
0.499163 0.956728 0.173451
0.612189 0.955411 0.172511
0.763986 0.954033 0.172645
0.955989 0.953128 0.174205
1.000000 0.995981 0.217058
1.000000 1.000000 0.275099
1.000000 1.000000 0.353715
1.000000 1.000000 0.460130
1.000000 1.000000 0.604316
1.000000 1.000000 0.799651
1.000000 1.000000 1.000000
1.000000 1.000000 1.000000
1.000000 1.000000 1.000000
1.000000 1.000000 1.000000
1.000000 1.000000 1.000000
1.000000 1.000000 1.000000
1.000000 1.000000 1.000000
0.231698 1.000000 0.220500
0.235802 1.000000 0.220500
0.239372 1.000000 0.220500
0.243445 1.000000 0.220500
0.247085 1.000000 0.220500
0.251339 1.000000 0.220500
0.256316 1.000000 0.220500
0.262780 1.000000 0.220500
0.271844 1.000000 0.220500
0.284320 1.000000 0.220500
0.301416 1.000000 0.220500
0.324319 1.000000 0.220475
0.356526 1.000000 0.219763
0.398681 1.000000 0.218850
0.459071 1.000000 0.218114
0.542016 1.000000 0.216304
0.655042 1.000000 0.215364
0.806840 1.000000 0.215498
0.997363 1.000000 0.215579
1.000000 1.000000 0.217058
1.000000 1.000000 0.275099
1.000000 1.000000 0.353715
1.000000 1.000000 0.460130
1.000000 1.000000 0.604316
1.000000 1.000000 0.799651
1.000000 1.000000 1.000000
1.000000 1.000000 1.000000
1.000000 1.000000 1.000000
1.000000 1.000000 1.000000
1.000000 1.000000 1.000000
1.000000 1.000000 1.000000
1.000000 1.000000 1.000000
0.289740 1.000000 0.278541
0.293843 1.000000 0.278541
0.297414 1.000000 0.278541
0.301486 1.000000 0.278541
0.305127 1.000000 0.278541
0.309380 1.000000 0.278541
0.314357 1.000000 0.278541
0.320821 1.000000 0.278541
0.329885 1.000000 0.278541
0.342361 1.000000 0.278541
0.359457 1.000000 0.278541
0.382360 1.000000 0.278516
0.414567 1.000000 0.277804
0.456722 1.000000 0.276891
0.517112 1.000000 0.276155
0.600057 1.000000 0.274346
0.713084 1.000000 0.273405
0.864881 1.000000 0.273539
1.000000 1.000000 0.273620
1.000000 1.000000 0.273620
1.000000 1.000000 0.275099
1.000000 1.000000 0.353715
1.000000 1.000000 0.460130
1.000000 1.000000 0.604316
1.000000 1.000000 0.799651
1.000000 1.000000 1.000000
1.000000 1.000000 1.000000
1.000000 1.000000 1.000000
1.000000 1.000000 1.000000
1.000000 1.000000 1.000000
1.000000 1.000000 1.000000
1.000000 1.000000 1.000000
0.368355 1.000000 0.357156
0.372458 1.000000 0.357156
0.376029 1.000000 0.357156
0.380101 1.000000 0.357156
0.383742 1.000000 0.357156
0.387995 1.000000 0.357156
0.392973 1.000000 0.357156
0.399436 1.000000 0.357156
0.408500 1.000000 0.357156
0.420977 1.000000 0.357156
0.438072 1.000000 0.357156
0.460975 1.000000 0.357132
0.493182 1.000000 0.356420
0.535338 1.000000 0.355506
0.595727 1.000000 0.354770
0.678673 1.000000 0.352961
0.791699 1.000000 0.352020
0.943496 1.000000 0.352155
1.000000 1.000000 0.352236
1.000000 1.000000 0.352236
1.000000 1.000000 0.352236
1.000000 1.000000 0.353715
1.000000 1.000000 0.460130
1.000000 1.000000 0.604316
1.000000 1.000000 0.799651
1.000000 1.000000 1.000000
1.000000 1.000000 1.000000
1.000000 1.000000 1.000000
1.000000 1.000000 1.000000
1.000000 1.000000 1.000000
1.000000 1.000000 1.000000
1.000000 1.000000 1.000000
0.474770 1.000000 0.463571
0.478873 1.000000 0.463571
0.482443 1.000000 0.463571
0.486516 1.000000 0.463571
0.490156 1.000000 0.463571
0.494410 1.000000 0.463571
0.499387 1.000000 0.463571
0.505851 1.000000 0.463571
0.514915 1.000000 0.463571
0.527392 1.000000 0.463571
0.544487 1.000000 0.463571
0.567390 1.000000 0.463546
0.599597 1.000000 0.462835
0.641752 1.000000 0.461921
0.702142 1.000000 0.461185
0.785088 1.000000 0.459376
0.898113 1.000000 0.458435
1.000000 1.000000 0.458570
1.000000 1.000000 0.458650
1.000000 1.000000 0.458650
1.000000 1.000000 0.458650
1.000000 1.000000 0.458650
1.000000 1.000000 0.460130
1.000000 1.000000 0.604316
1.000000 1.000000 0.799651
1.000000 1.000000 1.000000
1.000000 1.000000 1.000000
1.000000 1.000000 1.000000
1.000000 1.000000 1.000000
1.000000 1.000000 1.000000
1.000000 1.000000 1.000000
1.000000 1.000000 1.000000
0.618956 1.000000 0.607757
0.623060 1.000000 0.607757
0.626630 1.000000 0.607757
0.630702 1.000000 0.607757
0.634343 1.000000 0.607757
0.638596 1.000000 0.607757
0.643573 1.000000 0.607757
0.650038 1.000000 0.607757
0.659102 1.000000 0.607757
0.671578 1.000000 0.607757
0.688673 1.000000 0.607757
0.711576 1.000000 0.607733
0.743784 1.000000 0.607021
0.785939 1.000000 0.606107
0.846329 1.000000 0.605372
0.929274 1.000000 0.603562
1.000000 1.000000 0.602621
1.000000 1.000000 0.602756
1.000000 1.000000 0.602837
1.000000 1.000000 0.602837
1.000000 1.000000 0.602837
1.000000 1.000000 0.602837
1.000000 1.000000 0.602837
1.000000 1.000000 0.604316
1.000000 1.000000 0.799651
1.000000 1.000000 1.000000
1.000000 1.000000 1.000000
1.000000 1.000000 1.000000
1.000000 1.000000 1.000000
1.000000 1.000000 1.000000
1.000000 1.000000 1.000000
1.000000 1.000000 1.000000
0.814291 1.000000 0.803093
0.818395 1.000000 0.803093
0.821966 1.000000 0.803093
0.826038 1.000000 0.803093
0.829679 1.000000 0.803093
0.833932 1.000000 0.803093
0.838910 1.000000 0.803093
0.845372 1.000000 0.803093
0.854437 1.000000 0.803093
0.866913 1.000000 0.803093
0.884009 1.000000 0.803093
0.906912 1.000000 0.803068
0.939119 1.000000 0.802356
0.981274 1.000000 0.801443
1.000000 1.000000 0.800707
1.000000 1.000000 0.798898
1.000000 1.000000 0.797957
1.000000 1.000000 0.798091
1.000000 1.000000 0.798172
1.000000 1.000000 0.798172
1.000000 1.000000 0.798172
1.000000 1.000000 0.798172
1.000000 1.000000 0.798172
1.000000 1.000000 0.798172
1.000000 1.000000 0.799651
1.000000 1.000000 1.000000
1.000000 1.000000 1.000000
1.000000 1.000000 1.000000
1.000000 1.000000 1.000000
1.000000 1.000000 1.000000
1.000000 1.000000 1.000000
1.000000 1.000000 1.000000
1.000000 1.000000 1.000000
1.000000 1.000000 1.000000
1.000000 1.000000 1.000000
1.000000 1.000000 1.000000
1.000000 1.000000 1.000000
1.000000 1.000000 1.000000
1.000000 1.000000 1.000000
1.000000 1.000000 1.000000
1.000000 1.000000 1.000000
1.000000 1.000000 1.000000
1.000000 1.000000 1.000000
1.000000 1.000000 1.000000
1.000000 1.000000 1.000000
1.000000 1.000000 1.000000
1.000000 1.000000 1.000000
1.000000 1.000000 1.000000
1.000000 1.000000 1.000000
1.000000 1.000000 1.000000
1.000000 1.000000 1.000000
1.000000 1.000000 1.000000
1.000000 1.000000 1.000000
1.000000 1.000000 1.000000
1.000000 1.000000 1.000000
1.000000 1.000000 1.000000
1.000000 1.000000 1.000000
1.000000 1.000000 1.000000
1.000000 1.000000 1.000000
1.000000 1.000000 1.000000
1.000000 1.000000 1.000000
1.000000 1.000000 1.000000
1.000000 1.000000 1.000000
1.000000 1.000000 1.000000
1.000000 1.000000 1.000000
1.000000 1.000000 1.000000
1.000000 1.000000 1.000000
1.000000 1.000000 1.000000
1.000000 1.000000 1.000000
1.000000 1.000000 1.000000
1.000000 1.000000 1.000000
1.000000 1.000000 1.000000
1.000000 1.000000 1.000000
1.000000 1.000000 1.000000
1.000000 1.000000 1.000000
1.000000 1.000000 1.000000
1.000000 1.000000 1.000000
1.000000 1.000000 1.000000
1.000000 1.000000 1.000000
1.000000 1.000000 1.000000
1.000000 1.000000 1.000000
1.000000 1.000000 1.000000
1.000000 1.000000 1.000000
1.000000 1.000000 1.000000
1.000000 1.000000 1.000000
1.000000 1.000000 1.000000
1.000000 1.000000 1.000000
1.000000 1.000000 1.000000
1.000000 1.000000 1.000000
1.000000 1.000000 1.000000
1.000000 1.000000 1.000000
1.000000 1.000000 1.000000
1.000000 1.000000 1.000000
1.000000 1.000000 1.000000
1.000000 1.000000 1.000000
1.000000 1.000000 1.000000
1.000000 1.000000 1.000000
1.000000 1.000000 1.000000
1.000000 1.000000 1.000000
1.000000 1.000000 1.000000
1.000000 1.000000 1.000000
1.000000 1.000000 1.000000
1.000000 1.000000 1.000000
1.000000 1.000000 1.000000
1.000000 1.000000 1.000000
1.000000 1.000000 1.000000
1.000000 1.000000 1.000000
1.000000 1.000000 1.000000
1.000000 1.000000 1.000000
1.000000 1.000000 1.000000
1.000000 1.000000 1.000000
1.000000 1.000000 1.000000
1.000000 1.000000 1.000000
1.000000 1.000000 1.000000
