Lea Goldberg/Assets/Horror Living Room/Textures/FLivingRoom (2).cube
#Created by: Adobe Photoshop Export Color Lookup Plugin
TITLE "LivingRoomLut"
#LUT size
LUT_3D_SIZE 8
#data domain
#LUT data points
DOMAIN_MIN 0.000000 0.000000 0.000000
DOMAIN_MAX 0.903226 0.903226 0.903226
0.000000 0.001831 0.000179
0.006620 0.003540 0.001888
0.035201 0.007362 0.005710
0.143876 0.020497 0.020320
0.510542 0.068381 0.061990
1.000000 0.231897 0.238013
1.000000 0.756449 0.762566
1.000000 1.000000 1.000000
0.000000 0.019209 0.001894
0.008459 0.020844 0.003566
0.035977 0.023604 0.006326
0.144879 0.037083 0.021044
0.510575 0.083762 0.062141
1.000000 0.249316 0.239927
1.000000 0.773868 0.764479
1.000000 1.000000 1.000000
0.000000 0.049425 0.005755
0.012699 0.050983 0.007350
0.036961 0.049802 0.006382
0.144610 0.062714 0.019164
0.510689 0.108406 0.062940
1.000000 0.273695 0.238863
1.000000 0.798247 0.763415
1.000000 1.000000 1.000000
0.010153 0.151052 0.018351
0.026930 0.152442 0.019740
0.051385 0.152138 0.019436
0.141155 0.151320 0.018697
0.512176 0.199244 0.062145
1.000000 0.370307 0.237703
1.000000 0.894859 0.762255
1.000000 1.000000 1.000000
0.083811 0.531259 0.098339
0.101919 0.533861 0.100942
0.127970 0.534469 0.101550
0.216040 0.534377 0.100583
0.532297 0.537441 0.103179
1.000000 0.692486 0.240264
1.000000 1.000000 0.764816
1.000000 1.000000 1.000000
0.289740 1.000000 0.278541
0.305127 1.000000 0.278541
0.329885 1.000000 0.278541
0.414567 1.000000 0.277804
0.713084 1.000000 0.273405
1.000000 1.000000 0.275099
1.000000 1.000000 0.799651
1.000000 1.000000 1.000000
0.814291 1.000000 0.803093
0.829679 1.000000 0.803093
0.854437 1.000000 0.803093
0.939119 1.000000 0.802356
1.000000 1.000000 0.797957
1.000000 1.000000 0.798172
1.000000 1.000000 0.799651
1.000000 1.000000 1.000000
1.000000 1.000000 1.000000
1.000000 1.000000 1.000000
1.000000 1.000000 1.000000
1.000000 1.000000 1.000000
1.000000 1.000000 1.000000
1.000000 1.000000 1.000000
1.000000 1.000000 1.000000
1.000000 1.000000 1.000000
0.000000 0.004408 0.018222
0.008498 0.005418 0.019310
0.035201 0.007362 0.021254
0.143355 0.020648 0.035936
0.510496 0.068375 0.078082
1.000000 0.231897 0.253875
1.000000 0.756449 0.778427
1.000000 1.000000 1.000000
0.000000 0.019900 0.018130
0.010007 0.022471 0.020780
0.037792 0.025497 0.023806
0.146204 0.038685 0.038350
0.513054 0.086281 0.080719
1.000000 0.249803 0.256394
1.000000 0.774355 0.780944
1.000000 1.000000 1.000000
0.000000 0.049333 0.021207
0.013528 0.051891 0.023844
0.039585 0.052505 0.024671
0.146958 0.065338 0.037492
0.513320 0.111076 0.081669
1.000000 0.276358 0.257506
1.000000 0.800910 0.782058
1.000000 1.000000 1.000000
0.010153 0.151052 0.034055
0.028059 0.153610 0.036456
0.053989 0.154782 0.037627
0.143595 0.153918 0.036882
0.514439 0.202336 0.080506
1.000000 0.373010 0.256347
1.000000 0.897561 0.780899
1.000000 1.000000 1.000000
0.083139 0.531298 0.113765
0.101044 0.533856 0.116284
0.129711 0.537080 0.119508
0.218316 0.537007 0.118679
0.534869 0.540013 0.121179
1.000000 0.695156 0.258402
1.000000 1.000000 0.782954
1.000000 1.000000 1.000000
0.291169 1.000000 0.295594
0.307586 1.000000 0.296545
0.332344 1.000000 0.296545
0.416991 1.000000 0.295894
0.715694 1.000000 0.291363
1.000000 1.000000 0.293234
1.000000 1.000000 0.817787
1.000000 1.000000 1.000000
0.815721 1.000000 0.820146
0.832138 1.000000 0.821097
0.856896 1.000000 0.821097
0.941543 1.000000 0.820446
1.000000 1.000000 0.815915
1.000000 1.000000 0.816307
1.000000 1.000000 0.817786
1.000000 1.000000 1.000000
1.000000 1.000000 1.000000
1.000000 1.000000 1.000000
1.000000 1.000000 1.000000
1.000000 1.000000 1.000000
1.000000 1.000000 1.000000
1.000000 1.000000 1.000000
1.000000 1.000000 1.000000
1.000000 1.000000 1.000000
0.000000 0.008611 0.047639
0.012701 0.009620 0.048728
0.037231 0.009392 0.048956
0.140333 0.021520 0.062023
0.510230 0.068337 0.106924
1.000000 0.231897 0.281386
1.000000 0.756449 0.805937
1.000000 1.000000 1.000000
0.000000 0.024103 0.047547
0.014210 0.026674 0.050197
0.039815 0.027521 0.051500
0.143183 0.039557 0.064437
0.512788 0.086242 0.109561
1.000000 0.249803 0.283906
1.000000 0.774355 0.808457
1.000000 1.000000 1.000000
0.000000 0.049470 0.047015
0.014134 0.052041 0.049665
0.042829 0.056205 0.054286
0.148962 0.068939 0.067692
0.516876 0.114861 0.114105
1.000000 0.278422 0.287766
1.000000 0.802974 0.812316
1.000000 1.000000 1.000000
0.010153 0.151052 0.060654
0.028059 0.153610 0.063054
0.056678 0.157699 0.066230
0.147001 0.158237 0.067115
0.516819 0.209522 0.111766
1.000000 0.377937 0.289242
1.000000 0.902489 0.813794
1.000000 1.000000 1.000000
0.079243 0.531523 0.138749
0.097148 0.534081 0.141268
0.125767 0.538170 0.145128
0.220769 0.541514 0.148401
0.539036 0.544180 0.150348
1.000000 0.699893 0.288370
1.000000 1.000000 0.812922
1.000000 1.000000 1.000000
0.289078 1.000000 0.319630
0.307259 1.000000 0.322345
0.335863 1.000000 0.325734
0.420304 1.000000 0.325577
0.720086 1.000000 0.320286
1.000000 1.000000 0.323184
1.000000 1.000000 0.847736
1.000000 1.000000 1.000000
0.813630 1.000000 0.844182
0.831811 1.000000 0.846898
0.860414 1.000000 0.850286
0.944855 1.000000 0.850129
1.000000 1.000000 0.844838
1.000000 1.000000 0.846257
1.000000 1.000000 0.847736
1.000000 1.000000 1.000000
1.000000 1.000000 1.000000
1.000000 1.000000 1.000000
1.000000 1.000000 1.000000
1.000000 1.000000 1.000000
1.000000 1.000000 1.000000
1.000000 1.000000 1.000000
1.000000 1.000000 1.000000
1.000000 1.000000 1.000000
0.010906 0.023287 0.149854
0.027335 0.024407 0.151014
0.051979 0.024749 0.151584
0.137492 0.023720 0.150656
0.503742 0.075948 0.203097
1.000000 0.231897 0.374290
1.000000 0.756449 0.898842
1.000000 1.000000 1.000000
0.010893 0.038740 0.149762
0.028812 0.041389 0.152412
0.054551 0.042826 0.154076
0.139857 0.041908 0.153299
0.506478 0.094152 0.205833
1.000000 0.250170 0.376943
1.000000 0.774722 0.901495
1.000000 1.000000 1.000000
0.010817 0.063878 0.149230
0.028736 0.066528 0.151880
0.057431 0.071149 0.156500
0.142828 0.072162 0.157882
0.511595 0.124500 0.210950
1.000000 0.280919 0.381578
1.000000 0.805471 0.906131
1.000000 1.000000 1.000000
0.010808 0.151707 0.149164
0.028713 0.154304 0.151722
0.057332 0.158621 0.155810
0.153335 0.172593 0.170198
0.529245 0.226656 0.223765
1.000000 0.390902 0.396490
1.000000 0.915454 0.921043
1.000000 1.000000 1.000000
0.064333 0.530313 0.222106
0.082232 0.532825 0.224579
0.110813 0.536647 0.228173
0.218962 0.552003 0.243921
0.549996 0.559721 0.251785
1.000000 0.715285 0.391600
1.000000 1.000000 0.916152
1.000000 1.000000 1.000000
0.287405 1.000000 0.403265
0.305265 1.000000 0.405816
0.333617 1.000000 0.409866
0.431128 1.000000 0.423418
0.733342 1.000000 0.419678
1.000000 1.000000 0.421657
1.000000 1.000000 0.946209
1.000000 1.000000 1.000000
0.811957 1.000000 0.927817
0.829817 1.000000 0.930368
0.858169 1.000000 0.934418
0.955679 1.000000 0.947970
1.000000 1.000000 0.944230
1.000000 1.000000 0.944730
1.000000 1.000000 0.946209
1.000000 1.000000 1.000000
1.000000 1.000000 1.000000
1.000000 1.000000 1.000000
1.000000 1.000000 1.000000
1.000000 1.000000 1.000000
1.000000 1.000000 1.000000
1.000000 1.000000 1.000000
1.000000 1.000000 1.000000
1.000000 1.000000 1.000000
0.060472 0.075492 0.496814
0.077321 0.077035 0.498276
0.101854 0.077281 0.498051
0.184124 0.077754 0.498104
0.494243 0.093048 0.509007
1.000000 0.280232 0.689917
1.000000 0.804784 1.000000
1.000000 1.000000 1.000000
0.060459 0.090947 0.496722
0.078378 0.093558 0.499372
0.104439 0.095331 0.500674
0.186715 0.095849 0.500734
0.496906 0.111098 0.511630
1.000000 0.298190 0.692528
1.000000 0.822742 1.000000
1.000000 1.000000 1.000000
0.060383 0.116101 0.496190
0.078302 0.118711 0.498840
0.106997 0.123104 0.503461
0.190993 0.125571 0.505240
0.501603 0.140553 0.516099
1.000000 0.327113 0.696920
1.000000 0.851666 1.000000
1.000000 1.000000 1.000000
0.060595 0.204152 0.497675
0.078507 0.206717 0.500279
0.107164 0.210843 0.504634
0.203124 0.225342 0.518720
0.515963 0.242618 0.533121
1.000000 0.426750 0.712265
1.000000 0.951302 1.000000
1.000000 1.000000 1.000000
0.064865 0.532852 0.527567
0.082778 0.535455 0.530170
0.111434 0.539810 0.534525
0.207209 0.553623 0.547316
0.574949 0.610846 0.603295
1.000000 0.776121 0.769808
1.000000 1.000000 1.000000
1.000000 1.000000 1.000000
0.274220 1.000000 0.702355
0.292257 1.000000 0.704887
0.321636 1.000000 0.708823
0.419495 1.000000 0.722815
0.762641 1.000000 0.768768
1.000000 1.000000 0.769584
1.000000 1.000000 1.000000
1.000000 1.000000 1.000000
0.798772 1.000000 1.000000
0.816809 1.000000 1.000000
0.846188 1.000000 1.000000
0.944047 1.000000 1.000000
1.000000 1.000000 1.000000
1.000000 1.000000 1.000000
1.000000 1.000000 1.000000
1.000000 1.000000 1.000000
1.000000 1.000000 1.000000
1.000000 1.000000 1.000000
1.000000 1.000000 1.000000
1.000000 1.000000 1.000000
1.000000 1.000000 1.000000
1.000000 1.000000 1.000000
1.000000 1.000000 1.000000
1.000000 1.000000 1.000000
0.219653 0.241964 1.000000
0.237571 0.244613 1.000000
0.262425 0.245393 1.000000
0.344856 0.246412 1.000000
0.657668 0.261974 1.000000
1.000000 0.288964 1.000000
1.000000 0.811173 1.000000
1.000000 1.000000 1.000000
0.219672 0.257449 1.000000
0.237578 0.260046 1.000000
0.265003 0.263397 1.000000
0.347454 0.264475 1.000000
0.660231 0.279926 1.000000
1.000000 0.306817 1.000000
1.000000 0.829033 1.000000
1.000000 1.000000 1.000000
0.219786 0.282778 1.000000
0.237692 0.285375 1.000000
0.266311 0.289692 1.000000
0.351770 0.294006 1.000000
0.664358 0.308811 1.000000
1.000000 0.335132 1.000000
1.000000 0.857385 1.000000
1.000000 1.000000 1.000000
0.220172 0.370553 1.000000
0.238077 0.373112 1.000000
0.266696 0.377200 1.000000
0.362699 0.392031 1.000000
0.679572 0.410580 1.000000
1.000000 0.433223 1.000000
1.000000 0.955468 1.000000
1.000000 1.000000 1.000000
0.224212 0.694757 1.000000
0.242125 0.697403 1.000000
0.270784 0.702004 1.000000
0.366627 0.715320 1.000000
0.737053 0.772851 1.000000
1.000000 0.781961 1.000000
1.000000 1.000000 1.000000
1.000000 1.000000 1.000000
0.276539 1.000000 1.000000
0.294405 1.000000 1.000000
0.322796 1.000000 1.000000
0.420760 1.000000 1.000000
0.760845 1.000000 1.000000
1.000000 1.000000 1.000000
1.000000 1.000000 1.000000
1.000000 1.000000 1.000000
0.801091 1.000000 1.000000
0.818957 1.000000 1.000000
0.847348 1.000000 1.000000
0.945312 1.000000 1.000000
1.000000 1.000000 1.000000
1.000000 1.000000 1.000000
1.000000 1.000000 1.000000
1.000000 1.000000 1.000000
1.000000 1.000000 1.000000
1.000000 1.000000 1.000000
1.000000 1.000000 1.000000
1.000000 1.000000 1.000000
1.000000 1.000000 1.000000
1.000000 1.000000 1.000000
1.000000 1.000000 1.000000
1.000000 1.000000 1.000000
0.744204 0.766516 1.000000
0.762123 0.769165 1.000000
0.786978 0.769945 1.000000
0.869409 0.770964 1.000000
1.000000 0.786526 1.000000
1.000000 0.813516 1.000000
1.000000 0.813516 1.000000
1.000000 1.000000 1.000000
0.744224 0.781999 1.000000
0.762130 0.784599 1.000000
0.789556 0.787949 1.000000
0.872006 0.789027 1.000000
1.000000 0.804478 1.000000
1.000000 0.831369 1.000000
1.000000 0.831369 1.000000
1.000000 1.000000 1.000000
0.744338 0.807330 1.000000
0.762244 0.809927 1.000000
0.790863 0.814244 1.000000
0.876324 0.818558 1.000000
1.000000 0.833363 1.000000
1.000000 0.859684 1.000000
1.000000 0.859684 1.000000
1.000000 1.000000 1.000000
0.744724 0.895106 1.000000
0.762629 0.897663 1.000000
0.791248 0.901752 1.000000
0.887250 0.916582 1.000000
1.000000 0.935132 1.000000
1.000000 0.957775 1.000000
1.000000 0.957775 1.000000
1.000000 1.000000 1.000000
0.748764 1.000000 1.000000
0.766677 1.000000 1.000000
0.795336 1.000000 1.000000
0.891179 1.000000 1.000000
1.000000 1.000000 1.000000
1.000000 1.000000 1.000000
1.000000 1.000000 1.000000
1.000000 1.000000 1.000000
0.800534 1.000000 1.000000
0.818407 1.000000 1.000000
0.846836 1.000000 1.000000
0.944767 1.000000 1.000000
1.000000 1.000000 1.000000
1.000000 1.000000 1.000000
1.000000 1.000000 1.000000
1.000000 1.000000 1.000000
0.801091 1.000000 1.000000
0.818957 1.000000 1.000000
0.847348 1.000000 1.000000
0.945312 1.000000 1.000000
1.000000 1.000000 1.000000
1.000000 1.000000 1.000000
1.000000 1.000000 1.000000
1.000000 1.000000 1.000000
1.000000 1.000000 1.000000
1.000000 1.000000 1.000000
1.000000 1.000000 1.000000
1.000000 1.000000 1.000000
1.000000 1.000000 1.000000
1.000000 1.000000 1.000000
1.000000 1.000000 1.000000
1.000000 1.000000 1.000000
1.000000 1.000000 1.000000
1.000000 1.000000 1.000000
1.000000 1.000000 1.000000
1.000000 1.000000 1.000000
1.000000 1.000000 1.000000
1.000000 1.000000 1.000000
1.000000 1.000000 1.000000
1.000000 1.000000 1.000000
1.000000 1.000000 1.000000
1.000000 1.000000 1.000000
1.000000 1.000000 1.000000
1.000000 1.000000 1.000000
1.000000 1.000000 1.000000
1.000000 1.000000 1.000000
1.000000 1.000000 1.000000
1.000000 1.000000 1.000000
1.000000 1.000000 1.000000
1.000000 1.000000 1.000000
1.000000 1.000000 1.000000
1.000000 1.000000 1.000000
1.000000 1.000000 1.000000
1.000000 1.000000 1.000000
1.000000 1.000000 1.000000
1.000000 1.000000 1.000000
1.000000 1.000000 1.000000
1.000000 1.000000 1.000000
1.000000 1.000000 1.000000
1.000000 1.000000 1.000000
1.000000 1.000000 1.000000
1.000000 1.000000 1.000000
1.000000 1.000000 1.000000
1.000000 1.000000 1.000000
1.000000 1.000000 1.000000
1.000000 1.000000 1.000000
1.000000 1.000000 1.000000
1.000000 1.000000 1.000000
1.000000 1.000000 1.000000
1.000000 1.000000 1.000000
1.000000 1.000000 1.000000
1.000000 1.000000 1.000000
1.000000 1.000000 1.000000
1.000000 1.000000 1.000000
1.000000 1.000000 1.000000
1.000000 1.000000 1.000000
1.000000 1.000000 1.000000
1.000000 1.000000 1.000000
1.000000 1.000000 1.000000
1.000000 1.000000 1.000000
1.000000 1.000000 1.000000
1.000000 1.000000 1.000000
1.000000 1.000000 1.000000
1.000000 1.000000 1.000000
1.000000 1.000000 1.000000
1.000000 1.000000 1.000000
1.000000 1.000000 1.000000
1.000000 1.000000 1.000000
1.000000 1.000000 1.000000
1.000000 1.000000 1.000000
1.000000 1.000000 1.000000
1.000000 1.000000 1.000000
1.000000 1.000000 1.000000
1.000000 1.000000 1.000000
1.000000 1.000000 1.000000
1.000000 1.000000 1.000000
