Lea Goldberg/Assets/Horror Living Room/Textures/FLivingRoom (2).cube
#Created by: Adobe Photoshop Export Color Lookup Plugin
TITLE "LivingRoomLut"
#LUT size
LUT_3D_SIZE 5
#data domain
#LUT data points
DOMAIN_MIN 0.000000 0.000000 0.000000
DOMAIN_MAX 0.903226 0.903226 0.903226
0.000000 0.001831 0.000179
0.024738 0.005963 0.004311
0.272779 0.034415 0.033884
1.000000 0.310513 0.316629
1.000000 1.000000 1.000000
0.000000 0.038363 0.004341
0.026526 0.039201 0.005351
0.273023 0.066622 0.032494
1.000000 0.343385 0.317868
1.000000 1.000000 1.000000
0.028300 0.278077 0.039374
0.061161 0.280252 0.041378
0.272773 0.281418 0.041332
1.000000 0.558116 0.304043
1.000000 1.000000 1.000000
0.368355 1.000000 0.357156
0.399436 1.000000 0.357156
0.595727 1.000000 0.354770
1.000000 1.000000 0.353715
1.000000 1.000000 1.000000
1.000000 1.000000 1.000000
1.000000 1.000000 1.000000
1.000000 1.000000 1.000000
1.000000 1.000000 1.000000
1.000000 1.000000 1.000000
0.000000 0.007072 0.036870
0.026712 0.007937 0.038103
0.271614 0.035029 0.067072
1.000000 0.310513 0.349930
1.000000 1.000000 1.000000
0.000000 0.038645 0.036441
0.030813 0.043855 0.042020
0.277155 0.071560 0.071477
1.000000 0.346560 0.354896
1.000000 1.000000 1.000000
0.028335 0.278324 0.071247
0.064428 0.283794 0.076797
0.277400 0.286866 0.078676
1.000000 0.565389 0.343091
1.000000 1.000000 1.000000
0.368459 1.000000 0.389446
0.404126 1.000000 0.393663
0.600314 1.000000 0.391477
1.000000 1.000000 0.390835
1.000000 1.000000 1.000000
1.000000 1.000000 1.000000
1.000000 1.000000 1.000000
1.000000 1.000000 1.000000
1.000000 1.000000 1.000000
1.000000 1.000000 1.000000
0.028459 0.039955 0.272723
0.060356 0.041296 0.273893
0.260763 0.045761 0.273801
1.000000 0.345360 0.571710
1.000000 1.000000 1.000000
0.028431 0.072000 0.272524
0.064509 0.077378 0.277888
0.265760 0.082475 0.279159
1.000000 0.381652 0.576920
1.000000 1.000000 1.000000
0.029088 0.280445 0.277122
0.065102 0.285463 0.282042
0.286118 0.320316 0.316623
1.000000 0.613133 0.609389
1.000000 1.000000 1.000000
0.356068 1.000000 0.583281
0.392330 1.000000 0.588094
0.624018 1.000000 0.620572
1.000000 1.000000 0.621390
1.000000 1.000000 1.000000
1.000000 1.000000 1.000000
1.000000 1.000000 1.000000
1.000000 1.000000 1.000000
1.000000 1.000000 1.000000
1.000000 1.000000 1.000000
0.298268 0.320578 1.000000
0.332005 0.323786 1.000000
0.524470 0.328354 1.000000
1.000000 0.367579 1.000000
1.000000 1.000000 1.000000
0.298360 0.352120 1.000000
0.334407 0.357454 1.000000
0.529375 0.365082 1.000000
1.000000 0.403382 1.000000
1.000000 1.000000 1.000000
0.299761 0.559525 1.000000
0.335871 0.564935 1.000000
0.557111 0.600820 1.000000
1.000000 0.633298 1.000000
1.000000 1.000000 1.000000
0.355154 1.000000 1.000000
0.391018 1.000000 1.000000
0.617863 1.000000 1.000000
1.000000 1.000000 1.000000
1.000000 1.000000 1.000000
1.000000 1.000000 1.000000
1.000000 1.000000 1.000000
1.000000 1.000000 1.000000
1.000000 1.000000 1.000000
1.000000 1.000000 1.000000
1.000000 1.000000 1.000000
1.000000 1.000000 1.000000
1.000000 1.000000 1.000000
1.000000 1.000000 1.000000
1.000000 1.000000 1.000000
1.000000 1.000000 1.000000
1.000000 1.000000 1.000000
1.000000 1.000000 1.000000
1.000000 1.000000 1.000000
1.000000 1.000000 1.000000
1.000000 1.000000 1.000000
1.000000 1.000000 1.000000
1.000000 1.000000 1.000000
1.000000 1.000000 1.000000
1.000000 1.000000 1.000000
1.000000 1.000000 1.000000
1.000000 1.000000 1.000000
1.000000 1.000000 1.000000
1.000000 1.000000 1.000000
1.000000 1.000000 1.000000
1.000000 1.000000 1.000000
1.000000 1.000000 1.000000
1.000000 1.000000 1.000000
1.000000 1.000000 1.000000
1.000000 1.000000 1.000000
